src/components/zone/car.svg

<svg viewBox="0 0 20 14" xmlns="http://www.w3.org/2000/svg"><path d="m19.3867417 8.51133345-.0012305-.03548109-.0025637-.06655267-.0021535-.04358227-.0035891-.05711839c-.0012305-.01620235-.0023585-.03230215-.0037942-.04860704-.0012306-.01630489-.0027688-.03260979-.0042044-.04901723-.0018458-.01835582-.003384-.03671164-.0056401-.05496492l-.0035891-.03332761c-.2040675-1.79558913-1.5125608-3.25585121-3.2295993-3.68531594-.2781061-2.48295828-3.0476818-4.43441808-6.43038306-4.43441808-3.38270123 0-6.15227697 1.9514598-6.43028052 4.43452063-1.71703851.42946472-3.02542924 1.88972681-3.22949677 3.68531594-.00123055.01107502-.00266621.02225259-.00379422.03332761-.00205093.01825328-.00369167.0366091-.00533241.05496492-.00492042.05146421-.00881796.10302108-.0116903.15464011-.00082038.01456161-.0017433.02891812-.00235857.04358227-.00102547.02215004-.00184584.04450517-.00256367.06655267l-.00112801.03548109c-.00090639.03437973-.0013508.0687701-.0013331.10316177v2.15286108c0 .5946672.48196852 1.0765331 1.0765331 1.0765331h1.13067766c.24949562 1.2281994 1.33495027 2.1528612 2.63677802 2.1528612l.01866346-.0002051.01507434.0002051c1.3019303 0 2.38789768-.9245592 2.63718821-2.1528612h4.38006844c.2495982 1.2281994 1.3349503 2.1528612 2.6369831 2.1528612l.0186635-.0002051.0149718.0002051c1.3018277 0 2.3877951-.9245592 2.6371882-2.1528612h1.0967347c.5944621 0 1.0765331-.4818659 1.0765331-1.076328v-2.15306618c0-.03445562-.0006152-.06891124-.0013331-.10316177zm-4.365917-4.20256046h-4.815891v-3.2123715c2.4475797.16294638 4.4592343 1.49830684 4.815891 3.2123715zm-5.89242413-3.20755182v3.20755182h-4.74913327c.35327267-1.69837505 2.33190729-3.02481396 4.74913327-3.20755182zm-2.62939468 10.32971353c-.02676463.0640916-.04717138.1305417-.06101516.1987351-.15074335.7418214-.80663073 1.2817287-1.5637315 1.29024-.88323296-.0082037-1.59931514-.7289005-1.59931514-1.6141844 0-.8903086.7242859-1.61449198 1.61469711-1.61449198.89041122 0 1.61469711.72428588 1.61469711 1.61449198.00010255.041839-.00215347.083678-.00533242.1252093zm9.68787501 0c-.0266621.0640916-.0470688.1306442-.0609126.1987351-.1508459.7418214-.8067333 1.2817287-1.563629 1.29024-.8832329-.0082037-1.5995202-.7289005-1.5995202-1.6141844 0-.8903086.7243885-1.61449198 1.6146971-1.61449198.8903087 0 1.6146971.72428588 1.6146971 1.61449198.0001026.041839-.0020509.083678-.0053324.1252093zm1.0279261-.6637835c-.2493931-1.22819933-1.3352579-2.15265598-2.6371882-2.15265598-1.302238 0-2.3884104.92486684-2.6373933 2.15368148-.0109725-.0004102-.0218424-.0010255-.0332251-.0010255h-4.38006844c-.24939308-1.22819933-1.33536046-2.15265598-2.63718821-2.15265598-1.3021354 0-2.38841042.92486684-2.63729076 2.15368148-.01097247-.0004102-.02194495-.0010255-.03322506-.0010255h-1.13067766v-2.15265598c0-.02553408.00030764-.05096561.00092292-.07639714.00010255-.00953682.00051273-.01907365.00082037-.02850792.00082037-.0277901.00205093-.05547766.00379422-.08306266l.00215348-.03496836.00328149-.04440263.00194838-.02061185c.12100486-1.3502297 1.08586484-2.49146964 2.42942901-2.83028326.04881213-.01230558.09608607-.02789264.14161671-.04645356.21234582-.04326841.42851332-.06501571.64522255-.06491193h10.7643056c.2208851 0 .436848.02235513.6453251.06491193.0456332.01845837.092702.03414798.1416167.04645356 1.3435642.33871107 2.3085267 1.48015611 2.429429 2.83028326l.0020509.02061185c.0012306.01476669.0021535.02943084.0033841.04440263l.0020509.03496836c.0008204.01230558.0016407.02461116.0020509.03691673l.0018459.04604338.0008203.02850793c.0006153.02543153.0010255.05086306.0010255.07639714v2.15265602h-1.0968373z" fill="#fff" fill-rule="evenodd" transform=""/></svg>

<?xml version="1.0" encoding="UTF-8"?>
<svg viewBox="0 0 20 14" version="1.1" xmlns="http://www.w3.org/2000/svg" xmlns:xlink="http://www.w3.org/1999/xlink">
    <!-- Generator: Sketch 47 (45396) - http://www.bohemiancoding.com/sketch -->
    <title>车</title>
    <desc>Created with Sketch.</desc>
    <defs></defs>
    <g id="九路泊车视觉设计" stroke="none" stroke-width="1" fill="none" fill-rule="evenodd">
        <g id="2-0车位首页" transform="translate(-20.000000, -78.000000)" fill="#FFFFFF">
            <g id="车" transform="translate(20.000000, 78.000000)">
                <path d="M19.3867417,8.51133345 L19.3855112,8.47585236 L19.3829475,8.40929969 L19.380794,8.36571742 L19.3772049,8.30859903 C19.3759744,8.29239668 19.3748464,8.27629688 19.3734107,8.25999199 C19.3721801,8.2436871 19.3706419,8.2273822 19.3692063,8.21097476 C19.3673605,8.19261894 19.3658223,8.17426312 19.3635662,8.15600984 L19.3599771,8.12268223 C19.1559096,6.3270931 17.8474163,4.86683102 16.1303778,4.43736629 C15.8522717,1.95440801 13.082696,0.00294821173 9.69999474,0.00294821173 C6.31729351,0.00294821173 3.54771777,1.95440801 3.26971422,4.43746884 C1.55267571,4.86693356 0.244284979,6.32719565 0.0402174535,8.12278478 C0.0389868956,8.1338598 0.0375512446,8.14503737 0.0364232332,8.15611239 C0.0343723033,8.17436567 0.0327315594,8.19272149 0.0310908155,8.21107731 C0.026170397,8.26254152 0.0222728612,8.31409839 0.019400515,8.36571742 C0.0185801431,8.38027903 0.0176572246,8.39463554 0.0170419456,8.40929969 C0.0160164807,8.43144973 0.0151961087,8.45380486 0.0144782833,8.47585236 L0.0133502718,8.51133345 C0.0124438774,8.54571318 0.0119994691,8.58010355 0.0120171674,8.61449522 L0.0120171674,10.7673563 C0.0120171674,11.3620235 0.493985694,11.8438894 1.08855027,11.8438894 L2.21922793,11.8438894 C2.46872355,13.0720888 3.5541782,13.9967506 4.85600595,13.9967506 L4.87466941,13.9965455 L4.88974375,13.9967506 C6.19167405,13.9967506 7.27764143,13.0721914 7.52693196,11.8438894 L11.9070004,11.8438894 C12.1565986,13.0720888 13.2419507,13.9967506 14.5439835,13.9967506 L14.562647,13.9965455 L14.5776188,13.9967506 C15.8794465,13.9967506 16.9654139,13.0721914 17.214807,11.8438894 L18.3115417,11.8438894 C18.9060038,11.8438894 19.3880748,11.3620235 19.3880748,10.7675614 L19.3880748,8.61449522 C19.3880748,8.5800396 19.3874596,8.54558398 19.3867417,8.51133345 L19.3867417,8.51133345 Z M15.0208247,4.30877299 L10.2049337,4.30877299 L10.2049337,1.09640149 C12.6525134,1.25934787 14.664168,2.59470833 15.0208247,4.30877299 L15.0208247,4.30877299 Z M9.12840057,1.10122117 L9.12840057,4.30877299 L4.3792673,4.30877299 C4.73253997,2.61039794 6.71117459,1.28395903 9.12840057,1.10122117 L9.12840057,1.10122117 Z M6.49900589,11.4309347 C6.47224126,11.4950263 6.45183451,11.5614764 6.43799073,11.6296698 C6.28724738,12.3714912 5.63136,12.9113985 4.87425923,12.9199098 C3.99102627,12.9117061 3.27494409,12.1910093 3.27494409,11.3057254 C3.27494409,10.4154168 3.99922999,9.69123342 4.8896412,9.69123342 C5.78005242,9.69123342 6.50433831,10.4155193 6.50433831,11.3057254 C6.50444086,11.3475644 6.50218484,11.3894034 6.49900589,11.4309347 L6.49900589,11.4309347 Z M16.1868809,11.4309347 C16.1602188,11.4950263 16.1398121,11.5615789 16.1259683,11.6296698 C15.9751224,12.3714912 15.319235,12.9113985 14.5623393,12.9199098 C13.6791064,12.9117061 12.9628191,12.1910093 12.9628191,11.3057254 C12.9628191,10.4154168 13.6872076,9.69123342 14.5775162,9.69123342 C15.4678249,9.69123342 16.1922133,10.4155193 16.1922133,11.3057254 C16.1923159,11.3475644 16.1901624,11.3894034 16.1868809,11.4309347 L16.1868809,11.4309347 Z M17.214807,10.7671512 C16.9654139,9.53895187 15.8795491,8.61449522 14.5776188,8.61449522 C13.2753808,8.61449522 12.1892084,9.53936206 11.9402255,10.7681767 C11.929253,10.7677665 11.9183831,10.7671512 11.9070004,10.7671512 L7.52693196,10.7671512 C7.27753888,9.53895187 6.1915715,8.61449522 4.88974375,8.61449522 C3.58760835,8.61449522 2.50133333,9.53936206 2.25245299,10.7681767 C2.24148052,10.7677665 2.23050804,10.7671512 2.21922793,10.7671512 L1.08855027,10.7671512 L1.08855027,8.61449522 C1.08855027,8.58896114 1.08885791,8.56352961 1.08947319,8.53809808 C1.08957574,8.52856126 1.08998592,8.51902443 1.09029356,8.50959016 C1.09111393,8.48180006 1.09234449,8.4541125 1.09408778,8.4265275 L1.09624126,8.39155914 L1.09952275,8.34715651 L1.10147113,8.32654466 C1.22247599,6.97631496 2.18733597,5.83507502 3.53090014,5.4962614 C3.57971227,5.48395582 3.62698621,5.46836876 3.67251685,5.44980784 C3.88486267,5.40653943 4.10103017,5.38479213 4.3177394,5.38489591 L15.082045,5.38489591 C15.3029301,5.38489591 15.518893,5.40725104 15.7273701,5.44980784 C15.7730033,5.46826621 15.8200721,5.48395582 15.8689868,5.4962614 C17.212551,5.83497247 18.1775135,6.97641751 18.2984158,8.32654466 L18.3004667,8.34715651 C18.3016973,8.3619232 18.3026202,8.37658735 18.3038508,8.39155914 L18.3059017,8.4265275 C18.3067221,8.43883308 18.3075424,8.45113866 18.3079526,8.46344423 L18.3097985,8.50948761 L18.3106188,8.53799554 C18.3112341,8.56342707 18.3116443,8.5888586 18.3116443,8.61439268 L18.3116443,10.7670487 L17.214807,10.7670487 L17.214807,10.7671512 Z" id="Shape"></path>
            </g>
        </g>
    </g>
</svg>
